svg/s/CY.svg

<svg width="16" height="12" viewBox="0 0 16 12" fill="none" xmlns="http://www.w3.org/2000/svg">
<g clip-path="url(#clip0_270_55098)">
<rect width="16" height="12" fill="white"/>
<path fill-rule="evenodd" clip-rule="evenodd" d="M0 0V12H16V0H0Z" fill="#F7FCFF"/>
<mask id="mask0_270_55098" style="mask-type:luminance" maskUnits="userSpaceOnUse" x="0" y="0" width="16" height="12">
<path fill-rule="evenodd" clip-rule="evenodd" d="M0 0V12H16V0H0Z" fill="white"/>
</mask>
<g mask="url(#mask0_270_55098)">
<path fill-rule="evenodd" clip-rule="evenodd" d="M12.2837 2.3796C12.2837 2.3796 9.6426 3.83862 9.31012 3.93094C8.97771 4.02322 9.19949 4.07868 8.62683 4.04178C8.05436 4.00483 6.92778 4.24775 6.66925 4.08154C6.41065 3.91521 6.3183 3.61977 6.29996 4.11852C6.28143 4.61705 6.68792 5.04183 6.17061 5.07882C5.65368 5.11569 5.59814 4.6354 5.24739 4.93107C4.89644 5.22644 4.60091 5.89138 4.37919 5.72516C4.15761 5.55883 3.84374 5.11569 3.93609 5.54047C4.02825 5.96518 4.30532 7.03498 5.19184 7.0535C6.07844 7.07204 6.26296 6.75802 6.29996 7.01662C6.33677 7.27509 6.72472 7.31199 6.81696 6.97957C6.90944 6.64714 7.66661 7.35031 8.0729 6.99941C8.47912 6.64858 8.81153 6.35303 8.94096 6.14987C9.07013 5.94671 9.51343 5.98374 9.93819 5.98374C10.363 5.98374 10.9907 6.16834 10.6583 5.76214C10.3261 5.35567 9.75342 5.1711 10.086 4.76478C10.4182 4.35851 13.2395 3.00755 13.3689 2.85977C13.498 2.71203 12.6714 2.15801 12.2837 2.3796Z" fill="#F57A01"/>
<path fill-rule="evenodd" clip-rule="evenodd" d="M12.2837 2.3796C12.2837 2.3796 9.6426 3.83862 9.31012 3.93094C8.97771 4.02322 9.19949 4.07868 8.62683 4.04178C8.05436 4.00483 6.92778 4.24775 6.66925 4.08154C6.41065 3.91521 6.3183 3.61977 6.29996 4.11852C6.28143 4.61705 6.68792 5.04183 6.17061 5.07882C5.65368 5.11569 5.59814 4.6354 5.24739 4.93107C4.89644 5.22644 4.60091 5.89138 4.37919 5.72516C4.15761 5.55883 3.84374 5.11569 3.93609 5.54047C4.02825 5.96518 4.30532 7.03498 5.19184 7.0535C6.07844 7.07204 6.26296 6.75802 6.29996 7.01662C6.33677 7.27509 6.72472 7.31199 6.81696 6.97957C6.90944 6.64714 7.66661 7.35031 8.0729 6.99941C8.47912 6.64858 8.81153 6.35303 8.94096 6.14987C9.07013 5.94671 9.51343 5.98374 9.93819 5.98374C10.363 5.98374 10.9907 6.16834 10.6583 5.76214C10.3261 5.35567 9.75342 5.1711 10.086 4.76478C10.4182 4.35851 13.2395 3.00755 13.3689 2.85977C13.498 2.71203 12.6714 2.15801 12.2837 2.3796Z" fill="url(#paint0_linear_270_55098)"/>
<path fill-rule="evenodd" clip-rule="evenodd" d="M5.45606 8.05206C6.76716 8.05206 7.89381 9.51111 7.89381 9.51111C7.91276 9.53006 7.93027 9.54848 7.94641 9.56638C7.96255 9.54848 7.98005 9.53006 7.999 9.51111C7.999 9.51111 9.31311 8.05206 10.6243 8.05206C11.9355 8.05206 9.67951 10.176 8.22058 10.176C8.22058 10.176 8.07063 10.1623 7.94641 10.0999C7.82219 10.1623 7.67223 10.176 7.67223 10.176C6.21323 10.176 4.1447 8.05206 5.45606 8.05206Z" fill="#006B49"/>
<path fill-rule="evenodd" clip-rule="evenodd" d="M5.45606 8.05206C6.76716 8.05206 7.89381 9.51111 7.89381 9.51111C7.91276 9.53006 7.93027 9.54848 7.94641 9.56638C7.96255 9.54848 7.98005 9.53006 7.999 9.51111C7.999 9.51111 9.31311 8.05206 10.6243 8.05206C11.9355 8.05206 9.67951 10.176 8.22058 10.176C8.22058 10.176 8.07063 10.1623 7.94641 10.0999C7.82219 10.1623 7.67223 10.176 7.67223 10.176C6.21323 10.176 4.1447 8.05206 5.45606 8.05206Z" fill="url(#paint1_linear_270_55098)"/>
</g>
</g>
<defs>
<linearGradient id="paint0_linear_270_55098" x1="15" y1="9" x2="15" y2="1" gradientUnits="userSpaceOnUse">
<stop stop-color="#EA5113"/>
<stop offset="1" stop-color="#FC9B58"/>
</linearGradient>
<linearGradient id="paint1_linear_270_55098" x1="11.0188" y1="10.176" x2="11.0188" y2="8.05206" gradientUnits="userSpaceOnUse">
<stop stop-color="#008057"/>
<stop offset="1" stop-color="#00B77C"/>
</linearGradient>
<clipPath id="clip0_270_55098">
<rect width="16" height="12" fill="white"/>
</clipPath>
</defs>
</svg>

<svg width="16" height="12" fill="none" xmlns="http://www.w3.org/2000/svg">
  <mask id="a" maskUnits="userSpaceOnUse" x="0" y="0" width="16" height="12">
    <path fill="#fff" d="M0 0h16v12H0z"/>
  </mask>
  <g mask="url(#a)">
    <path fill-rule="evenodd" clip-rule="evenodd" d="M0 0v12h16V0H0z" fill="#F7FCFF"/>
    <mask id="b" maskUnits="userSpaceOnUse" x="0" y="0" width="16" height="12">
      <path fill-rule="evenodd" clip-rule="evenodd" d="M0 0v12h16V0H0z" fill="#fff"/>
    </mask>
    <g mask="url(#b)" fill-rule="evenodd" clip-rule="evenodd">
      <path d="M12.284 2.38S9.643 3.839 9.31 3.93c-.332.093-.11.149-.683.112-.573-.037-1.7.206-1.958.04-.258-.167-.35-.462-.369.037-.019.498.388.923-.13.96-.516.037-.572-.444-.923-.148-.35.295-.646.96-.868.794-.221-.166-.535-.61-.443-.185.092.425.37 1.495 1.256 1.513.886.019 1.071-.295 1.108-.036.037.258.425.295.517-.037.092-.333.85.37 1.256.02.406-.351.739-.647.868-.85.13-.203.572-.166.997-.166.425 0 1.053.184.72-.222-.332-.406-.905-.59-.572-.997.332-.406 3.153-1.757 3.283-1.905.129-.148-.698-.702-1.085-.48z" fill="#F57A01"/>
      <path d="M12.284 2.38S9.643 3.839 9.31 3.93c-.332.093-.11.149-.683.112-.573-.037-1.7.206-1.958.04-.258-.167-.35-.462-.369.037-.019.498.388.923-.13.96-.516.037-.572-.444-.923-.148-.35.295-.646.96-.868.794-.221-.166-.535-.61-.443-.185.092.425.37 1.495 1.256 1.513.886.019 1.071-.295 1.108-.036.037.258.425.295.517-.037.092-.333.85.37 1.256.02.406-.351.739-.647.868-.85.13-.203.572-.166.997-.166.425 0 1.053.184.72-.222-.332-.406-.905-.59-.572-.997.332-.406 3.153-1.757 3.283-1.905.129-.148-.698-.702-1.085-.48z" fill="url(#CY_-_Cyprus__paint0_linear)"/>
      <path d="M5.456 8.052c1.311 0 2.438 1.46 2.438 1.46a.867.867 0 01.052.054L8 9.511s1.314-1.459 2.625-1.459-.944 2.124-2.403 2.124c0 0-.15-.014-.275-.076a.89.89 0 01-.274.076c-1.459 0-3.527-2.124-2.216-2.124z" fill="#006B49"/>
      <path d="M5.456 8.052c1.311 0 2.438 1.46 2.438 1.46a.867.867 0 01.052.054L8 9.511s1.314-1.459 2.625-1.459-.944 2.124-2.403 2.124c0 0-.15-.014-.275-.076a.89.89 0 01-.274.076c-1.459 0-3.527-2.124-2.216-2.124z" fill="url(#CY_-_Cyprus__paint1_linear)"/>
    </g>
  </g>
  <defs>
    <linearGradient id="CY_-_Cyprus__paint0_linear" x1="15" y1="9" x2="15" y2="1" gradientUnits="userSpaceOnUse">
      <stop stop-color="#EA5113"/>
      <stop offset="1" stop-color="#FC9B58"/>
    </linearGradient>
    <linearGradient id="CY_-_Cyprus__paint1_linear" x1="11.019" y1="10.176" x2="11.019" y2="8.052" gradientUnits="userSpaceOnUse">
      <stop stop-color="#008057"/>
      <stop offset="1" stop-color="#00B77C"/>
    </linearGradient>
  </defs>
</svg>
